Numix-GalliumOS/24/emblems/emblem-pictures.svg

<?xml version="1.0" encoding="UTF-8" standalone="no"?>
<svg
   xmlns:dc="http://purl.org/dc/elements/1.1/"
   xmlns:cc="http://creativecommons.org/ns#"
   xmlns:rdf="http://www.w3.org/1999/02/22-rdf-syntax-ns#"
   xmlns:svg="http://www.w3.org/2000/svg"
   xmlns="http://www.w3.org/2000/svg"
   xmlns:sodipodi="http://sodipodi.sourceforge.net/DTD/sodipodi-0.dtd"
   xmlns:inkscape="http://www.inkscape.org/namespaces/inkscape"
   width="24"
   height="24"
   viewBox="0 0 24 24"
   id="svg2"
   version="1.1"
   inkscape:version="0.91 r13725"
   sodipodi:docname="emblem-pictures.svg">
  <metadata
     id="metadata12">
    <rdf:RDF>
      <cc:Work
         rdf:about="">
        <dc:format>image/svg+xml</dc:format>
        <dc:type
           rdf:resource="http://purl.org/dc/dcmitype/StillImage" />
      </cc:Work>
    </rdf:RDF>
  </metadata>
  <defs
     id="defs10" />
  <sodipodi:namedview
     pagecolor="#ffffff"
     bordercolor="#666666"
     borderopacity="1"
     objecttolerance="10"
     gridtolerance="10"
     guidetolerance="10"
     inkscape:pageopacity="0"
     inkscape:pageshadow="2"
     inkscape:window-width="1366"
     inkscape:window-height="704"
     id="namedview8"
     showgrid="false"
     inkscape:object-nodes="true"
     inkscape:zoom="1"
     inkscape:cx="9.0249291"
     inkscape:cy="9.2421354"
     inkscape:window-x="0"
     inkscape:window-y="27"
     inkscape:window-maximized="1"
     inkscape:current-layer="svg2">
    <inkscape:grid
       type="xygrid"
       id="grid4140" />
  </sodipodi:namedview>
  <path
     style="fill:#fff;stroke:#777;stroke-width:.5"
     d="M 25.930511 35.186401 C 25.930511 42.095309 20.446393 47.69322 13.677926 47.69322 C 6.90946 47.69322 1.425342 42.095309 1.425342 35.186401 C 1.425342 28.277492 6.90946 22.679581 13.677926 22.679581 C 20.446393 22.679581 25.930511 28.277492 25.930511 35.186401 Z "
     transform="matrix(.7999 0 0 .78363 1.05909 -15.57329)"
     id="path4" />
  <path
     style="fill:#427fec;fill-opacity:0.94100001"
     d="M 6.78125,6 C 6.359375,6.039062 5.992188,6.484375 6,6.960938 L 6,17.0625 C 6.003906,17.558594 6.40625,18.007812 6.847656,18 l 10.324219,0 C 17.609375,17.992188 17.996094,17.550781 18,17.0625 L 18,6.960938 C 18.007812,6.464844 17.617188,6.003906 17.171875,6 Z M 7,7 17,7 17,15 7,15 Z"
     id="path6"
     inkscape:connector-curvature="0"
     sodipodi:nodetypes="cccccccccccccc" />
</svg>

<svg xmlns="http://www.w3.org/2000/svg" viewBox="0 0 24 24">
 <path d="m 25.931 35.19 c 0 6.909 -5.484 12.507 -12.253 12.507 c -6.768 0 -12.253 -5.598 -12.253 -12.507 c 0 -6.909 5.484 -12.507 12.253 -12.507 c 6.768 0 12.253 5.598 12.253 12.507 Z" transform="matrix(.7999 0 0 .78363 1.05909 -15.57329)" style="fill:#fff;stroke:#777;stroke-width:0.5"/>
 <path d="m 6.781 6 c -0.422 0.039 -0.789 0.484 -0.781 0.961 l 0 10.1 c 0.004 0.496 0.406 0.945 0.848 0.938 l 10.324 0 c 0.438 -0.008 0.824 -0.449 0.828 -0.938 l 0 -10.1 c 0.008 -0.496 -0.383 -0.957 -0.828 -0.961 m -10.172 1 10 0 0 8 -10 0" style="fill:#427fec;fill-opacity:0.941"/>
</svg>
